X: 5
T:Rolling Waves, The
T:Lonesome Jig, The
T:McGuire's March
M:12/8
L:1/8
R:Single Jig
K:D
[|:F2E EDE|F2D DED|F2E EFA|d2e fdA|!
F2E EDE|F2D DED|AFE EFA|B3 d3:|!
|:ABd e2f|d2c B2A|ABd e2f|d2A B3|!
ABd ede|fdB BAF|AFE EFA|B3 d3:|]!
"alt. Part B"ABd e2f|d2c B2A|ABd e2f|d2A B3|!
ABd efg|fdB BAF|AFE EFA|d2e fdA|]!
